assets/icons/whatsapp-icon.svg

<?xml version="1.0" encoding="utf-8"?><!-- Uploaded to: SVG Repo, www.svgrepo.com, Generator: SVG Repo Mixer Tools -->
<svg width="30px" height="30px" viewBox="0 0 24 24" fill="none" xmlns="http://www.w3.org/2000/svg">
<path d="M6.014 8.00613C6.12827 7.1024 7.30277 5.87414 8.23488 6.01043L8.23339 6.00894C9.14051 6.18132 9.85859 7.74261 10.2635 8.44465C10.5504 8.95402 10.3641 9.4701 10.0965 9.68787C9.7355 9.97883 9.17099 10.3803 9.28943 10.7834C9.5 11.5 12 14 13.2296 14.7107C13.695 14.9797 14.0325 14.2702 14.3207 13.9067C14.5301 13.6271 15.0466 13.46 15.5548 13.736C16.3138 14.178 17.0288 14.6917 17.69 15.27C18.0202 15.546 18.0977 15.9539 17.8689 16.385C17.4659 17.1443 16.3003 18.1456 15.4542 17.9421C13.9764 17.5868 8 15.27 6.08033 8.55801C5.97237 8.24048 5.99955 8.12044 6.014 8.00613Z" fill="#302a23"/>
<path fill-rule="evenodd" clip-rule="evenodd" d="M12 23C10.7764 23 10.0994 22.8687 9 22.5L6.89443 23.5528C5.56462 24.2177 4 23.2507 4 21.7639V19.5C1.84655 17.492 1 15.1767 1 12C1 5.92487 5.92487 1 12 1C18.0751 1 23 5.92487 23 12C23 18.0751 18.0751 23 12 23ZM6 18.6303L5.36395 18.0372C3.69087 16.4772 3 14.7331 3 12C3 7.02944 7.02944 3 12 3C16.9706 3 21 7.02944 21 12C21 16.9706 16.9706 21 12 21C11.0143 21 10.552 20.911 9.63595 20.6038L8.84847 20.3397L6 21.7639V18.6303Z" fill="#302a23"/>
</svg>

<?xml version="1.0" encoding="utf-8"?>
<svg xmlns="http://www.w3.org/2000/svg" width="30" height="30" fill="none" viewBox="0 0 24 24">
  <path fill="#302a23" d="M6.014 8.006c.114-.904 1.289-2.132 2.22-1.996V6.01c.907.172 1.625 1.734 2.03 2.436.286.509.1 1.025-.167 1.243-.361.29-.926.692-.808 1.095C9.5 11.5 12 14 13.23 14.711c.466.269.804-.44 1.092-.804.21-.28.726-.447 1.234-.171.759.442 1.474.956 2.135 1.534.33.276.408.684.179 1.115-.403.76-1.569 1.76-2.415 1.557C13.976 17.587 8 15.27 6.08 8.558c-.108-.318-.08-.438-.066-.552Z"/>
  <path fill="#302a23" fill-rule="evenodd" d="M12 23c-1.224 0-1.9-.131-3-.5l-2.106 1.053A2 2 0 0 1 4 21.763V19.5c-2.153-2.008-3-4.323-3-7.5C1 5.925 5.925 1 12 1s11 4.925 11 11-4.925 11-11 11Zm-6-4.37-.636-.593C3.691 16.477 3 14.733 3 12a9 9 0 1 1 9 9c-.986 0-1.448-.089-2.364-.396l-.788-.264L6 21.764V18.63Z" clip-rule="evenodd"/>
</svg>
